!!!COM: Fanny (Mendelssohn) Hensel
!!!CNT: Deutsch
!!!TXO: Deutsch
!!!OTL: "Beharre"
!!!LYR: von Che/zy, Wilhelmine
!!!OPR: 
!!!OPS: Op. 
!!!ONM: No. 
!!!ENC: Emily Thomas
!!!YOR: Hensel: 16 Songs Fanny Mendelssohn Hensel
!!!YOR: Alfred, 1995
!!!ODT: 1846/
!!NB: Vocal melody and text encoded.
**kern	**silbe
=1	=1
*clefG2	*
*k[]	*
*M4/4	*
*MM[Andante con moto non lento]	*
{2cc	{Schei-
4b	-de,
4cc	ach
=2	=2
4.ee	schei-
8dd	|
4cc}	-de,}
{8b	{doch
8a	|
=3	=3
4g	nur
4cc	von
4.ff	Lie-
8a	-be
=4	=4
2a	nicht;
4g}	|}
{4ee	{blu2ht
=5	=5
4dd	Lie-
4cc	-be
4b	gleich
8cc	im
8a	|
=6	=6
2a	Lei-
4g#}	-de,}
{4ee	{ist
=7	=7
4dd	sie
4cc	doch
4b	Le-
8cc	-bens-
8g#	|
=8	=8
2g#	-licht,
4a}	|}
{4ff	{blu2ht
=9	=9
4ee	Lie-
4dd	-be
4b	gleich
8cc	im
8a	|
=10	=10
2a	Lei-
4g}	-de,}
{4cc	{ist
=11	=11
4.cc	sie
8b	doch
4ff	Le-
4b	-bens-
=12	=12
2b	-licht.
2cc}	|}
=13	=13
{2dd-	{Schei-
4cc	-de,
4dd	ach
=14	=14
4.ff	schei-
8ee-	|
4dd-}	-de,}
{4cc	{doch
=15	=15
4b	nur
4b	von
4b	Lie-
8ff	|
8b	-be
=16	=16
2b	nicht!
4cc}	|}
4r	.
=17	=17
1r	.
=18	=18
1r	.
=19	=19
{2cc	{Schei-
4b	-de,
4cc	ach
=20	=20
4.ee	schei-
8dd	|
4cc}	-de,}
{8b	{doch
8a	|
=21	=21
4g	nur
4cc	von
4.ff	Glau-
8a	-ben
=22	=22
2a	nicht;
4g}	|}
{4ee	{der
=23	=23
4dd	sagt
4cc	dir,
4b	lie-
8cc	-be,
8a	|
=24	=24
2a	lei-
4g#}	-de,}
{4ee	{und
=25	=25
4dd	hoff'
4cc	in
4b	mei-
8cc	-nem
8g#	|
=26	=26
2g#	Licht,
4a}	|}
{4ff	{der
=27	=27
4ee	sagt
4dd}	dir,}
{4b	{lie-
8cc	-be,
8a	|
=28	=28
2a	lei-
4g}	-de,}
{4cc	{und
=29	=29
4.cc	hoff'
8b	in
4ff	mei-
4b	-nem
=30	=30
2b	Licht.
2cc}	|}
=31	=31
{2dd-	{Schei-
4cc	-de,
4dd-	-ach
=32	=32
4.ff	schei-
8ee-	|
4dd-}	-de,}
{4cc	{doch
=33	=33
4b	nur
4b	von
4.ff	Glau-
8b	-ben
=34	=34
2b	nicht!
4cc}	|}
4r	.
=35	=35
1r	.
=36	=36
1r	.
=37	=37
{2cc	{Schei-
4b	-de,
4cc	ach
=38	=38
4.ee	schei-
8dd	|
4cc}	-de,}
{8b	{doch
8a	|
=39	=39
4g	nur
4cc	von
4.ff	Lei-
8ee-	-de
=40	=40
2ee-	nicht;
4dd}	|}
4r	.
=41	=41
{2ee-	{Schei-
4dd	-de,
4ee-	ach
=42	=42
4.gg	schei-
8ff	|
4ee-}	-de,}
{4dd	{doch
=43	=43
4cc#	nur
4cc#	vom
4cc#	Lei-
4cc#	-de
=44	=44
2dd}	nicht!}
4r	.
{4dd	{Wer
=45	=45
4cc	nicht
4b-	kennt
4a	Lieb'
8b-	im
8g	|
=46	=46
2g	Lei-
4f#}	-de,}
{4dd	{der
=47	=47
4cc	kennt
4b-	nicht
4a	Lieb'
8b-	im
8dd	|
=48	=48
2dd	Licht.
4ee-}	|}
4r	.
=49	=49
{2dd-	{Schei0
4cc	-de,
4dd-	ach
=50	=50
2ff	schei-
4ee-}	-de,}
{4dd-	{doch
=51	=51
4cc	nur
4cc	von
4.ff	Lei-
8b	-de
=52	=52
2b	nicht!
4cc}	|}
4r	.
==	==
*-	*-
